Catalina-light/actions/16/align-horizontal-left-out.svg

<svg width="16" height="16" viewBox="0 0 16 16" xmlns="http://www.w3.org/2000/svg">
<defs>
<style id="current-color-scheme" type="text/css">.ColorScheme-Text { color:#5c616c; } .ColorScheme-Highlight { color:#5294e2; }</style>
</defs>
<path class="ColorScheme-Text" d="m4 1v14h2v-14h-2zm4 1v5h7v-5h-7zm-7 7v5h2v-5h-2zm7 0v5h5v-5h-5z" fill="currentColor"/>
</svg>

<svg xmlns="http://www.w3.org/2000/svg" width="16" height="16" viewBox="0 0 16 16">
 <defs>
  <style id="current-color-scheme" type="text/css">
   .ColorScheme-Text { color:#5c616c; } .ColorScheme-Highlight { color:#5294e2; }
  </style>
 </defs>
 <path style="fill:currentColor" class="ColorScheme-Text" d="M 4 1 L 4 15 L 6 15 L 6 1 L 4 1 z M 8 2 L 8 7 L 15 7 L 15 2 L 8 2 z M 1 9 L 1 14 L 3 14 L 3 9 L 1 9 z M 8 9 L 8 14 L 13 14 L 13 9 L 8 9 z"/>
</svg>
